X:1
L:1/8
Q:1/2=100
M:2/2
K:G
 c/d/e/f/ | g2 bg d'2 bg | e2 (3(aba) f2 df | g2 ec d2 BG | d2 d>d d2 d/e/f/ | g2 bg d'2 bg | 
 e2 (3(aba) f2 df | e>fg>e a>fd>f | g2 g>g g2 :: g/a/b/c'/ | d'3 b g3 e | c'3 a f3 d | 
 g2 ec b>gb>g | a2 a>a a2 z2 | d'3 b g3 e | c'3 a fa d2 | e>fg>e a>fd>f | g2 g>g g2 :: a>b | 
 c'zb z azg z | a>ga>b a>c'b>g | b>gb>g a>fa>f | g2 g>g g2 g/a/b/c'/ | d'4 d'>bg>e | c'4 c'>af>d | 
 g>fa>g b>ac'>b | b4 a2 :: a/g/f/e/ | d2 d>d d>ad>a | f2 f>f f>df>d | a2 fd a2 fd | 
 a2 a>a a2 ab/c'/ | d'4 a2 f2 | b4 g2 e2 | f2 (3(gfe) d2 e^c | d2 d>d d2 :|
